X: 35300
T: Rose Of St Magnus
R: barndance
M: 4/4
K: Amajor
ED|:C4 E4|A4 edcA|F4 A4|d4 edcB|B2 c(E E4)|B2 c(E E4)|
E2 A2 G3 A|c4 B3 A|A8|A6 AG:|F4 A4|d6 e2|e4 c3 B|A6 AG|
F4 A4|d6 e2|(e8|e6) ED C4 E4|A4 edcA|F4 A4|d4 edcB|
B2 c(E E4)|B2 c(E E4)|E2 A2 G3 A|(A8|A8)||

